X:359
T:Pike County Breakdown
C:
N:Arranged and Tabbed by Mark Kilinski Transcribed by David Williams
R:bluegrass
L:1/8
Q:1/4=245
M:4/4
K:G
GD3 E2 F2 | GE GG GA Bc | dG DG d2 GA | BA GB AG FA | GE GG G2 D2 | GE GG GA Bc | 
dG DG d2 de | =fe df ed c2 | dA DA d2 D2 | GE GG GA Bc | dG DG d2 de | =fe df ed ce | 
dc Bd cB ^A=A | G2 GA ^AB c^c | de dc B2 GA | BA GB AG FA | GE GG G2 D2 | G2 {E}G2 G2 {E}G2 | 
G2 {E}G2 G2 GA | ^A=A G_B AG FA | GE GG G2 D2 | GE GG GA Bc | dG DG d2 de | =fe de fe de | 
=fg fe dc BA | GF GG ^AB G=A | ^AG ED G2 DE | =FE DF ED B,A, | D2 {C}D2 D2 A,2 | 
G,2 A,^A, B,D ED | =FE DF ED B,A, | DB, A,=F, ^F,A, ^A,=A, | G,G, G,G, G,G,3 | 


